build/img/footer__item--facebook.svg

<svg width="54" height="54" viewBox="0 0 54 54" fill="none" xmlns="http://www.w3.org/2000/svg">
<circle opacity="0.1" cx="27" cy="27" r="25.5" fill="white" stroke="#283645" stroke-width="3"/>
<path d="M29.5087 21.1932H32V18H29.0208C25.7612 18.1711 24.5986 20.2714 25.0761 23.8163H23V27.1521H25.0761V36H29.0208V27.1521H31.9792V23.8163H29.0104C28.9896 22.8184 28.9689 21.5259 29.5087 21.1932Z" fill="#D22856"/>
</svg>

<svg width="54" height="54" fill="none" xmlns="http://www.w3.org/2000/svg"><circle opacity=".1" cx="27" cy="27" r="25.5" fill="#fff" stroke="#283645" stroke-width="3"/><path d="M29.509 21.193H32V18h-2.98c-3.259.171-4.421 2.271-3.944 5.816H23v3.336h2.076V36h3.945v-8.848h2.958v-3.336H29.01c-.02-.998-.041-2.29.499-2.623z" fill="#D22856"/></svg>
